static/img/svg/italic.svg

<svg xmlns="http://www.w3.org/2000/svg" width="24" height="24" viewBox="0 0 24 24"><path d="M18 6V4h-8v2h2.674L9.245 18H6v2h8v-2h-2.674l3.429-12z"/></svg>

<svg xmlns="http://www.w3.org/2000/svg" width="24" height="24" viewBox="0 0 24 24"><path d="M18 6L18 4 10 4 10 6 12.674 6 9.245 18 6 18 6 20 14 20 14 18 11.326 18 14.755 6z"/></svg>
